svg/l/VU.svg

<svg width="32" height="24" viewBox="0 0 32 24" fill="none" xmlns="http://www.w3.org/2000/svg">
<mask id="mask0" mask-type="alpha" maskUnits="userSpaceOnUse" x="0" y="0" width="32" height="24">
<rect width="32" height="24" fill="white"/>
</mask>
<g mask="url(#mask0)">
<path fill-rule="evenodd" clip-rule="evenodd" d="M0 0H32V24H0V0Z" fill="#F7FCFF"/>
<path fill-rule="evenodd" clip-rule="evenodd" d="M0 0V8H32V0H0Z" fill="#C51918"/>
<path fill-rule="evenodd" clip-rule="evenodd" d="M0 16V24H32V16H0Z" fill="#5EAA22"/>
<path fill-rule="evenodd" clip-rule="evenodd" d="M0 -2L16.6696 12L0 26V-2Z" fill="#272727"/>
<mask id="path-7-outside-1" maskUnits="userSpaceOnUse" x="-2" y="-8.35498" width="36" height="40" fill="black">
<rect fill="white" x="-2" y="-8.35498" width="36" height="40"/>
<path fill-rule="evenodd" clip-rule="evenodd" d="M0 -3.35498L17.4083 9.99997H32V14H17.1694L0 26.8115V22.3402L14 12L0 1.53447V-3.35498Z"/>
</mask>
<path fill-rule="evenodd" clip-rule="evenodd" d="M0 -3.35498L17.4083 9.99997H32V14H17.1694L0 26.8115V22.3402L14 12L0 1.53447V-3.35498Z" fill="#FFD018"/>
<path d="M17.4083 9.99997L16.1909 11.5868L16.7295 12H17.4083V9.99997ZM0 -3.35498L1.21736 -4.94182L-2 -7.41004V-3.35498H0ZM32 9.99997H34V7.99997H32V9.99997ZM32 14V16H34V14H32ZM17.1694 14V12H16.5054L15.9733 12.397L17.1694 14ZM0 26.8115H-2V30.7993L1.19608 28.4144L0 26.8115ZM0 22.3402L-1.18821 20.7314L-2 21.331V22.3402H0ZM14 12L15.1882 13.6087L17.3533 12.0096L15.1975 10.3981L14 12ZM0 1.53447H-2V2.53645L-1.19747 3.13636L0 1.53447ZM18.6257 8.41313L1.21736 -4.94182L-1.21736 -1.76815L16.1909 11.5868L18.6257 8.41313ZM32 7.99997H17.4083V12H32V7.99997ZM34 14V9.99997H30V14H34ZM17.1694 16H32V12H17.1694V16ZM1.19608 28.4144L18.3655 15.6029L15.9733 12.397L-1.19608 25.2086L1.19608 28.4144ZM-2 22.3402V26.8115H2V22.3402H-2ZM12.8118 10.3912L-1.18821 20.7314L1.18821 23.9489L15.1882 13.6087L12.8118 10.3912ZM-1.19747 3.13636L12.8025 13.6019L15.1975 10.3981L1.19747 -0.0674217L-1.19747 3.13636ZM-2 -3.35498V1.53447H2V-3.35498H-2Z" fill="#272727" mask="url(#path-7-outside-1)"/>
<path d="M4.87374 16.7682L4.87574 15.1878C6.28407 14.8771 7.21702 14.473 7.67114 13.987C8.78937 12.6088 8.04601 9.37996 5.74864 9.40107C4.61046 9.40107 3.43347 9.94345 3.43347 11.22C3.43347 12.8054 3.75973 13.4832 4.87574 13.4832C5.98479 13.4832 6.3914 13.5425 7.12195 12.5467L7.91473 12.7917C7.13189 13.8587 6.07664 14.7016 4.87374 14.7016C2.8922 14.7016 1.81384 13.2075 1.81384 11.4796C1.81384 9.34648 3.54552 7.85254 5.63347 7.85254C7.19138 7.85254 9.65552 9.76074 9.65552 11.4796C9.65552 13.1984 9.65552 13.987 8.30436 15.1878C7.76013 15.6715 6.41167 16.5353 4.87374 16.7682Z" fill="#FFD018"/>
<path fill-rule="evenodd" clip-rule="evenodd" d="M4.99144 9.88001C4.91516 9.85987 4.83699 9.90538 4.81684 9.98166L4.76223 10.1885C4.7595 10.1849 4.75676 10.1814 4.75402 10.1778C4.70579 10.1154 4.61608 10.1039 4.55364 10.1521C4.49119 10.2003 4.47966 10.29 4.52789 10.3525C4.56099 10.3953 4.59364 10.4377 4.62586 10.4795L4.46123 10.6316C4.40326 10.6851 4.39966 10.7755 4.45319 10.8334C4.50671 10.8914 4.59709 10.895 4.65506 10.8415L4.80053 10.7071C4.88739 10.8207 4.97062 10.93 5.05014 11.0351L4.77628 11.1821C4.70677 11.2194 4.68067 11.306 4.71799 11.3755C4.75531 11.445 4.84191 11.4711 4.91143 11.4338L5.2242 11.2659C5.29924 11.3659 5.37039 11.4612 5.43756 11.5519L5.062 11.7535C4.99248 11.7908 4.96638 11.8774 5.0037 11.9469C5.04102 12.0165 5.12763 12.0426 5.19714 12.0052L5.60868 11.7843C5.71813 11.934 5.81408 12.0676 5.89601 12.184L5.63343 12.3249C5.56391 12.3623 5.53781 12.4489 5.57513 12.5184C5.61245 12.5879 5.69906 12.614 5.76857 12.5767L6.05919 12.4207C6.18006 12.6008 6.24264 12.7088 6.24264 12.7373C6.24264 12.8162 6.3066 12.8801 6.3855 12.8801C6.4644 12.8801 6.52836 12.8162 6.52836 12.7373C6.52836 12.665 6.45314 12.5129 6.29595 12.2691C6.29823 12.2652 6.30032 12.2611 6.30221 12.2569L6.51361 11.7915C6.54623 11.7197 6.51445 11.635 6.44261 11.6024C6.37078 11.5697 6.28609 11.6015 6.25347 11.6733L6.10905 11.9913C6.01883 11.8615 5.91351 11.7145 5.79259 11.5494L5.94218 11.2201C5.97481 11.1482 5.94302 11.0635 5.87118 11.0309C5.79935 10.9983 5.71466 11.0301 5.68204 11.1019L5.59818 11.2866C5.55196 11.2246 5.50394 11.1605 5.45408 11.0943L5.65647 10.6486C5.68909 10.5768 5.65731 10.4921 5.58547 10.4595C5.51363 10.4269 5.42895 10.4587 5.39632 10.5305L5.25799 10.8351C5.17086 10.7205 5.07898 10.6002 4.98228 10.4743L5.09309 10.0546C5.11323 9.97833 5.06772 9.90016 4.99144 9.88001Z" fill="#FFD018"/>
<path fill-rule="evenodd" clip-rule="evenodd" d="M5.95217 9.88001C6.02845 9.85987 6.10662 9.90538 6.12676 9.98166L6.18137 10.1885C6.18411 10.1849 6.18684 10.1814 6.18958 10.1778C6.23781 10.1154 6.32752 10.1039 6.38997 10.1521C6.45241 10.2003 6.46394 10.29 6.41571 10.3525C6.38262 10.3953 6.34996 10.4377 6.31775 10.4795L6.48238 10.6316C6.54034 10.6851 6.54394 10.7755 6.49042 10.8334C6.43689 10.8914 6.34651 10.895 6.28855 10.8415L6.14307 10.7071C6.05622 10.8207 5.97299 10.93 5.89346 11.0351L6.16732 11.1821C6.23683 11.2194 6.26293 11.306 6.22561 11.3755C6.1883 11.445 6.10169 11.4711 6.03218 11.4338L5.7194 11.2659C5.64436 11.3659 5.57321 11.4612 5.50604 11.5519L5.88161 11.7535C5.95112 11.7908 5.97722 11.8774 5.9399 11.9469C5.90258 12.0165 5.81598 12.0426 5.74646 12.0052L5.33493 11.7843C5.22548 11.934 5.12952 12.0676 5.0476 12.184L5.31018 12.3249C5.37969 12.3623 5.40579 12.4489 5.36847 12.5184C5.33115 12.5879 5.24455 12.614 5.17503 12.5767L4.88442 12.4207C4.76354 12.6008 4.70096 12.7088 4.70096 12.7373C4.70096 12.8162 4.637 12.8801 4.55811 12.8801C4.47921 12.8801 4.41525 12.8162 4.41525 12.7373C4.41525 12.665 4.49046 12.5129 4.64765 12.2691C4.64538 12.2652 4.64329 12.2611 4.64139 12.2569L4.43 11.7915C4.39737 11.7197 4.42916 11.635 4.50099 11.6024C4.57283 11.5697 4.65751 11.6015 4.69014 11.6733L4.83455 11.9913C4.92478 11.8615 5.03009 11.7145 5.15102 11.5494L5.00142 11.2201C4.9688 11.1482 5.00058 11.0635 5.07242 11.0309C5.14426 10.9983 5.22894 11.0301 5.26156 11.1019L5.34543 11.2866C5.39164 11.2246 5.43967 11.1605 5.48953 11.0943L5.28714 10.6486C5.25451 10.5768 5.2863 10.4921 5.35813 10.4595C5.42997 10.4269 5.51465 10.4587 5.54728 10.5305L5.68561 10.8351C5.77274 10.7205 5.86462 10.6002 5.96132 10.4743L5.85051 10.0546C5.83037 9.97833 5.87588 9.90016 5.95217 9.88001Z" fill="#FFD018"/>
</g>
</svg>

<svg width="32" height="24" fill="none" xmlns="http://www.w3.org/2000/svg">
  <mask id="a" maskUnits="userSpaceOnUse" x="0" y="0" width="32" height="24">
    <path fill="#fff" d="M0 0h32v24H0z"/>
  </mask>
  <g mask="url(#a)">
    <path fill-rule="evenodd" clip-rule="evenodd" d="M0 0h32v24H0V0z" fill="#F7FCFF"/>
    <path fill-rule="evenodd" clip-rule="evenodd" d="M0 0v8h32V0H0z" fill="#C51918"/>
    <path fill-rule="evenodd" clip-rule="evenodd" d="M0 16v8h32v-8H0z" fill="#5EAA22"/>
    <path fill-rule="evenodd" clip-rule="evenodd" d="M0-2l16.67 14L0 26V-2z" fill="#272727"/>
    <mask id="b" maskUnits="userSpaceOnUse" x="-2" y="-8.355" width="36" height="40" fill="#000">
      <path fill="#fff" d="M-2-8.355h36v40H-2z"/>
      <path fill-rule="evenodd" clip-rule="evenodd" d="M0-3.355L17.408 10H32v4H17.17L0 26.811v-4.47L14 12 0 1.534v-4.889z"/>
    </mask>
    <path fill-rule="evenodd" clip-rule="evenodd" d="M0-3.355L17.408 10H32v4H17.17L0 26.811v-4.47L14 12 0 1.534v-4.889z" fill="#FFD018"/>
    <path d="M17.408 10l-1.217 1.587.539.413h.678v-2zM0-3.355l1.217-1.587L-2-7.41v4.055h2zM32 10h2V8h-2v2zm0 4v2h2v-2h-2zm-14.83 0v-2h-.665l-.532.397L17.17 14zM0 26.811h-2V30.8l3.196-2.385L0 26.811zm0-4.47l-1.188-1.61-.812.6v1.01h2zM14 12l1.188 1.609 2.165-1.6-2.156-1.61L14 12zM0 1.534h-2v1.002l.803.6L0 1.534zm18.626 6.88L1.217-4.943l-2.434 3.174L16.19 11.587l2.435-3.174zM32 8H17.408v4H32V8zm2 6v-4h-4v4h4zm-16.83 2H32v-4H17.17v4zM1.195 28.414l17.17-12.811-2.393-3.206-17.17 12.812 2.393 3.205zM-2 22.34v4.471h4v-4.47h-4zm14.812-11.949l-14 10.34 2.376 3.218 14-10.34-2.376-3.218zm-14.01-7.255l14 10.466 2.396-3.204-14-10.465-2.395 3.203zM-2-3.355v4.89h4v-4.89h-4z" fill="#272727" mask="url(#b)"/>
    <path d="M4.874 16.768l.002-1.58c1.408-.311 2.341-.715 2.795-1.201C8.79 12.609 8.046 9.38 5.75 9.4c-1.139 0-2.316.542-2.316 1.819 0 1.585.327 2.263 1.443 2.263 1.109 0 1.515.06 2.246-.936l.793.245c-.783 1.067-1.838 1.91-3.041 1.91-1.982 0-3.06-1.495-3.06-3.223 0-2.133 1.731-3.627 3.82-3.627 1.557 0 4.021 1.909 4.021 3.627 0 1.72 0 2.508-1.35 3.709-.545.483-1.893 1.347-3.431 1.58z" fill="#FFD018"/>
    <path fill-rule="evenodd" clip-rule="evenodd" d="M4.991 9.88a.143.143 0 00-.174.101l-.055.207-.008-.01a.143.143 0 10-.226.174l.098.127-.165.152a.143.143 0 00.194.21l.146-.134.25.328-.275.147a.143.143 0 10.135.252l.313-.168.214.286-.376.201a.143.143 0 00.135.252l.412-.22c.11.149.205.282.287.399l-.263.14a.143.143 0 10.136.252l.29-.155c.121.18.184.288.184.316a.143.143 0 00.285 0c0-.072-.075-.224-.232-.468a.16.16 0 00.006-.012l.212-.466a.143.143 0 10-.26-.118l-.145.318c-.09-.13-.195-.277-.316-.442l.15-.33a.143.143 0 00-.261-.117l-.084.184a48.8 48.8 0 00-.144-.192l.202-.445a.143.143 0 00-.26-.119l-.138.305a92.464 92.464 0 00-.276-.36l.111-.42a.143.143 0 00-.102-.175z" fill="#FFD018"/>
    <path fill-rule="evenodd" clip-rule="evenodd" d="M5.952 9.88a.143.143 0 01.175.101l.054.207.009-.01a.143.143 0 11.226.174l-.098.127.164.152a.143.143 0 01-.193.21l-.146-.134-.25.328.274.147a.143.143 0 11-.135.252l-.313-.168-.213.286.376.201a.143.143 0 01-.136.252l-.411-.22c-.11.149-.205.282-.287.399l.262.14a.143.143 0 11-.135.252l-.29-.155c-.121.18-.184.288-.184.316a.143.143 0 01-.286 0c0-.072.075-.224.233-.468a.167.167 0 01-.007-.012l-.211-.466a.143.143 0 11.26-.118l.145.318c.09-.13.195-.277.316-.442l-.15-.33a.143.143 0 01.26-.117l.084.184.145-.192-.203-.445a.143.143 0 01.26-.119l.139.305.275-.36-.11-.42a.143.143 0 01.101-.175z" fill="#FFD018"/>
  </g>
</svg>
